assets/Woman frowning/Medium-Dark/Flat/woman_frowning_flat_medium-dark.svg

<svg width="32" height="32" viewBox="0 0 32 32" fill="none" xmlns="http://www.w3.org/2000/svg">
<path d="M26.49 13.607C26.49 12.6856 26.2097 11.8344 25.7393 11.1234C25.2588 10.4123 25.0186 9.57108 25.0186 8.70982V8.6998C25.0186 6.21617 23.0066 4.20322 20.5242 4.20322C20.2739 4.20322 20.0437 4.09306 19.9036 3.89277C19.0828 2.74108 17.7515 2 16.24 2C14.7285 2 13.3972 2.74108 12.5864 3.88276C12.4463 4.08305 12.2161 4.19321 11.9658 4.19321C9.4834 4.19321 7.47144 6.20616 7.47144 8.68979V8.6998C7.47144 9.56107 7.2312 10.4023 6.75073 11.1133C6.28027 11.8344 6 12.6957 6 13.607C6 14.308 6.16016 14.969 6.44043 15.5598C6.53052 15.7601 6.53052 15.9905 6.44043 16.1808C6.16016 16.7616 6 17.4126 6 18.1036C6 20.5271 7.96191 22.5 10.3943 22.5H22.1057C24.5281 22.5 26.5 20.5371 26.5 18.1036C26.5 17.4126 26.3398 16.7616 26.0596 16.1808C25.9595 15.9805 25.9595 15.7501 26.0596 15.5598C26.3298 14.969 26.49 14.308 26.49 13.607Z" fill="#2D242D"/>
<path d="M26 30V29.6161C26 24.311 21.5255 20 16 20C10.4745 20 6 24.3012 6 29.6161V30H26Z" fill="#8B62BF"/>
<path d="M16 24.5C14.6174 24.5 13.5 23.306 13.5 21.8286V18.6714C13.5 17.194 14.6174 16 16 16C17.3826 16 18.5 17.194 18.5 18.6714V21.8286C18.5 23.306 17.3826 24.5 16 24.5Z" fill="#8B5C56"/>
<path d="M12.31 13.53C12.31 14.7892 11.2892 15.81 10.03 15.81C8.77079 15.81 7.75 14.7892 7.75 13.53C7.75 12.2708 8.77079 11.25 10.03 11.25C11.2892 11.25 12.31 12.2708 12.31 13.53Z" fill="#8B5C56"/>
<path d="M24.5 13.375C24.5 14.5486 23.5486 15.5 22.375 15.5C21.2014 15.5 20.25 14.5486 20.25 13.375C20.25 12.2014 21.2014 11.25 22.375 11.25C23.5486 11.25 24.5 12.2014 24.5 13.375Z" fill="#8B5C56"/>
<path d="M12.2374 6.04761C12.2251 6.05388 12.2128 6.0602 12.2005 6.06657L12.26 6.08001L12.2374 6.04761Z" fill="#966661"/>
<path d="M10.5982 9.03733C11.314 8.71519 11.8998 8.12613 12.21 7.37001L12.31 7.12001C12.42 6.86001 12.77 6.82001 12.94 7.05001C13.91 8.47001 15.51 9.31001 17.23 9.31001H21.5595C21.7846 9.3159 22.7132 9.40786 22.9997 10.5288C22.9992 10.5815 22.9979 10.6343 22.9956 10.6873L22.8091 15.1478C22.652 18.9512 19.7652 21.5 16.25 21.5C12.7446 21.5 9.84802 18.9512 9.69092 15.1478L9.50436 10.6873C9.49778 10.5296 9.4987 10.3734 9.50677 10.2189C9.75826 9.47626 10.2938 9.17154 10.5084 9.07609C10.5235 9.06984 10.5386 9.06347 10.5536 9.05699C10.5833 9.04519 10.6001 9.04003 10.6001 9.04003L10.5982 9.03733Z" fill="#966661"/>
<path d="M15.49 12.8675L14.8 15.0875C14.66 15.5375 15 15.9975 15.47 15.9975H16.48C16.96 15.9975 17.29 15.5375 17.15 15.0875L16.46 12.8675C16.33 12.3775 15.64 12.3775 15.49 12.8675Z" fill="#75443E"/>
<path d="M17.3883 18.2236C16.4586 17.7588 15.5415 17.7588 14.6119 18.2236C14.4884 18.2853 14.3382 18.2353 14.2764 18.1118C14.2147 17.9883 14.2648 17.8381 14.3883 17.7764C15.4586 17.2412 16.5415 17.2412 17.6119 17.7764C17.7353 17.8381 17.7854 17.9883 17.7237 18.1118C17.6619 18.2353 17.5118 18.2853 17.3883 18.2236Z" fill="#990838"/>
<path d="M12.7 11.83C13.46 11.83 14.09 12.36 14.48 12.95C14.222 13.0268 13.9694 13.0992 13.7195 13.1707C13.0588 13.3598 12.4175 13.5433 11.75 13.79L11.1 13.2C10.83 12.95 10.85 12.52 11.15 12.31C11.58 12 12.16 11.83 12.7 11.83Z" fill="black"/>
<path d="M19.3 11.83C18.54 11.83 17.91 12.36 17.52 12.95C17.778 13.0268 18.0306 13.0992 18.2805 13.1707C18.9412 13.3598 19.5825 13.5433 20.25 13.79L20.9 13.2C21.17 12.95 21.15 12.52 20.85 12.31C20.42 12 19.84 11.83 19.3 11.83Z" fill="black"/>
<path d="M14.9383 13.5051C15.0065 13.7727 14.7762 14 14.5 14H11.5C11.2239 14 10.9936 13.7727 11.0618 13.5051C11.282 12.6399 12.0663 12 13 12C13.9338 12 14.7181 12.6399 14.9383 13.5051Z" fill="white"/>
<path d="M17.0618 13.5051C16.9936 13.7727 17.2239 14 17.5 14H20.5C20.7762 14 21.0065 13.7727 20.9383 13.5051C20.7181 12.6399 19.9338 12 19 12C18.0663 12 17.282 12.6399 17.0618 13.5051Z" fill="white"/>
<path d="M14.5 13.75C14.5 13.8356 14.4914 13.9192 14.475 14H12.025C12.0086 13.9192 12 13.8356 12 13.75C12 13.0596 12.5596 12.5 13.25 12.5C13.9404 12.5 14.5 13.0596 14.5 13.75Z" fill="#7D4533"/>
<path d="M17.5 13.75C17.5 13.8356 17.5086 13.9192 17.525 14H19.975C19.9914 13.9192 20 13.8356 20 13.75C20 13.0596 19.4404 12.5 18.75 12.5C18.0596 12.5 17.5 13.0596 17.5 13.75Z" fill="#7D4533"/>
<path d="M14 13.75C14 13.8377 13.985 13.9218 13.9573 14H12.5427C12.515 13.9218 12.5 13.8377 12.5 13.75C12.5 13.3358 12.8358 13 13.25 13C13.6642 13 14 13.3358 14 13.75Z" fill="black"/>
<path d="M18 13.75C18 13.8377 18.015 13.9218 18.0427 14H19.4573C19.485 13.9218 19.5 13.8377 19.5 13.75C19.5 13.3358 19.1642 13 18.75 13C18.3358 13 18 13.3358 18 13.75Z" fill="black"/>
<path d="M12.75 13.5C12.8881 13.5 13 13.3881 13 13.25C13 13.1119 12.8881 13 12.75 13C12.6119 13 12.5 13.1119 12.5 13.25C12.5 13.3881 12.6119 13.5 12.75 13.5Z" fill="white"/>
<path d="M18.25 13.5C18.1119 13.5 18 13.3881 18 13.25C18 13.1119 18.1119 13 18.25 13C18.3881 13 18.5 13.1119 18.5 13.25C18.5 13.3881 18.3881 13.5 18.25 13.5Z" fill="white"/>
<path d="M14.2652 10.2652C14.4116 10.1187 14.4116 9.88128 14.2652 9.73483C14.1187 9.58839 13.8813 9.58839 13.7348 9.73483C13.5463 9.92335 13.1137 10.1506 12.6183 10.3364C12.3803 10.4256 12.1439 10.4994 11.9403 10.5503C11.7291 10.6031 11.5778 10.625 11.5 10.625C11.2929 10.625 11.125 10.7929 11.125 11C11.125 11.2071 11.2929 11.375 11.5 11.375C11.6722 11.375 11.8959 11.3344 12.1222 11.2779C12.3561 11.2194 12.6197 11.1369 12.8817 11.0386C13.3863 10.8494 13.9537 10.5766 14.2652 10.2652Z" fill="#372128"/>
<path d="M17.7348 10.2652C17.5884 10.1187 17.5884 9.88128 17.7348 9.73483C17.8813 9.58839 18.1187 9.58839 18.2652 9.73483C18.4537 9.92335 18.8863 10.1506 19.3817 10.3364C19.6197 10.4256 19.8561 10.4994 20.0597 10.5503C20.2709 10.6031 20.4222 10.625 20.5 10.625C20.7071 10.625 20.875 10.7929 20.875 11C20.875 11.2071 20.7071 11.375 20.5 11.375C20.3278 11.375 20.1041 11.3344 19.8778 11.2779C19.6439 11.2194 19.3803 11.1369 19.1183 11.0386C18.6137 10.8494 18.0463 10.5766 17.7348 10.2652Z" fill="#372128"/>
</svg>

<svg xmlns="http://www.w3.org/2000/svg" width="32" height="32" fill="none"><path fill="#2D242D" d="M26.49 13.607c0-.921-.28-1.773-.75-2.484a4.296 4.296 0 0 1-.721-2.413V8.7a4.495 4.495 0 0 0-4.495-4.497c-.25 0-.48-.11-.62-.31A4.48 4.48 0 0 0 16.24 2a4.465 4.465 0 0 0-3.654 1.883c-.14.2-.37.31-.62.31A4.495 4.495 0 0 0 7.47 8.69v.01c0 .861-.24 1.702-.72 2.413A4.568 4.568 0 0 0 6 13.607c0 .701.16 1.362.44 1.953.09.2.09.43 0 .62A4.41 4.41 0 0 0 6 18.105a4.395 4.395 0 0 0 4.394 4.396h11.712a4.395 4.395 0 0 0 4.394-4.396c0-.691-.16-1.342-.44-1.923a.68.68 0 0 1 0-.621c.27-.591.43-1.252.43-1.953Z"/><path fill="#8B62BF" d="M26 30v-.384C26 24.311 21.526 20 16 20c-5.525 0-10 4.301-10 9.616V30h20Z"/><path fill="#8B5C56" d="M16 24.5c-1.383 0-2.5-1.194-2.5-2.671V18.67C13.5 17.194 14.617 16 16 16s2.5 1.194 2.5 2.671v3.158c0 1.477-1.117 2.671-2.5 2.671ZM12.31 13.53a2.28 2.28 0 1 1-4.56 0 2.28 2.28 0 0 1 4.56 0ZM24.5 13.375a2.125 2.125 0 1 1-4.25 0 2.125 2.125 0 0 1 4.25 0Z"/><path fill="#966661" d="M12.237 6.048a6.45 6.45 0 0 0-.037.019l.06.013-.023-.032ZM10.598 9.037A3.133 3.133 0 0 0 12.21 7.37l.1-.25c.11-.26.46-.3.63-.07a5.181 5.181 0 0 0 4.29 2.26h4.33c.225.006 1.153.098 1.44 1.219 0 .053-.002.105-.004.158l-.187 4.46c-.157 3.804-3.044 6.353-6.559 6.353-3.505 0-6.402-2.549-6.56-6.352l-.186-4.46a4.99 4.99 0 0 1 .003-.47c.251-.742.787-1.046 1.001-1.142a3.2 3.2 0 0 0 .046-.019l.046-.017-.002-.003Z"/><path fill="#75443E" d="m15.49 12.867-.69 2.22c-.14.45.2.91.67.91h1.01a.7.7 0 0 0 .67-.91l-.69-2.22c-.13-.49-.82-.49-.97 0Z"/><path fill="#990838" d="M17.388 18.224c-.93-.465-1.847-.465-2.776 0a.25.25 0 0 1-.224-.448c1.07-.535 2.153-.535 3.224 0a.25.25 0 0 1-.224.448Z"/><path fill="#000" d="M12.7 11.83c.76 0 1.39.53 1.78 1.12-.258.077-.51.15-.76.22-.661.19-1.303.373-1.97.62l-.65-.59a.57.57 0 0 1 .05-.89c.43-.31 1.01-.48 1.55-.48ZM19.3 11.83c-.76 0-1.39.53-1.78 1.12.258.077.51.15.76.22.661.19 1.302.373 1.97.62l.65-.59a.57.57 0 0 0-.05-.89c-.43-.31-1.01-.48-1.55-.48Z"/><path fill="#fff" d="M14.938 13.505c.069.268-.162.495-.438.495h-3c-.276 0-.506-.227-.438-.495a2 2 0 0 1 3.876 0ZM17.062 13.505c-.068.268.162.495.438.495h3c.276 0 .506-.227.438-.495a2 2 0 0 0-3.876 0Z"/><path fill="#7D4533" d="M14.5 13.75c0 .086-.009.17-.025.25h-2.45a1.25 1.25 0 1 1 2.475-.25ZM17.5 13.75c0 .086.009.17.025.25h2.45a1.25 1.25 0 1 0-2.475-.25Z"/><path fill="#000" d="M14 13.75a.747.747 0 0 1-.043.25h-1.414A.75.75 0 1 1 14 13.75ZM18 13.75c0 .088.015.172.043.25h1.414A.75.75 0 1 0 18 13.75Z"/><path fill="#fff" d="M12.75 13.5a.25.25 0 1 0 0-.5.25.25 0 0 0 0 .5ZM18.25 13.5a.25.25 0 1 1 0-.5.25.25 0 0 1 0 .5Z"/><path fill="#372128" d="M14.265 10.265a.375.375 0 0 0-.53-.53c-.189.188-.621.416-1.117.601-.238.09-.474.163-.678.214a2.117 2.117 0 0 1-.44.075.375.375 0 0 0 0 .75c.172 0 .396-.04.622-.097.234-.059.498-.141.76-.24.504-.189 1.072-.461 1.383-.773ZM17.735 10.265a.375.375 0 0 1 .53-.53c.189.188.621.416 1.117.601.238.09.474.163.678.214.21.053.362.075.44.075a.375.375 0 0 1 0 .75c-.172 0-.396-.04-.622-.097a7.157 7.157 0 0 1-.76-.24c-.504-.189-1.072-.461-1.383-.773Z"/></svg>
